src/assets/svg/icons/fa/nuevos/classic/duotone/face-grin-squint-tears classic duotone.svg

<svg xmlns="http://www.w3.org/2000/svg" viewBox="0 0 512 512"><defs><style>.fa-secondary{opacity:.4}</style></defs><path class="fa-primary" d="M497.8 85.18C483 99.97 432.2 108.8 409.6 111.9C403.1 112.8 399.2 108 400.1 102.4C403.3 79.94 412 28.97 426.8 14.18C446-5.046 477.5-4.646 497.1 14.92C516.6 34.49 517 65.95 497.8 85.18H497.8zM87.1 285.1C80.76 278.7 83.46 267.9 92.05 265.3L189.5 235.7C201.1 232.1 211.1 242.1 208.5 254.6L178.8 352.1C176.2 360.7 165.4 363.4 159 357C157.1 355 155.8 352.5 155.6 349.7L150.5 293.6L94.43 288.5C91.66 288.3 89.07 287.1 87.1 285.1V285.1zM265.3 92.05C267.9 83.46 278.7 80.76 285.1 87.1C287.1 89.07 288.3 91.66 288.5 94.43L293.6 150.5L349.7 155.6C352.5 155.8 355 157.1 357 159C363.4 165.4 360.7 176.2 352.1 178.8L254.6 208.5C242.1 211.1 232.1 201.1 235.7 189.5L265.3 92.05zM14.18 426.8C28.97 412 79.85 403.2 102.4 400.1C108 399.2 112.8 403.1 111.9 409.6C108.7 432.1 99.97 483 85.18 497.8C65.95 517 34.49 516.6 14.92 497.1C-4.645 477.5-5.046 446 14.18 426.8H14.18z"/><path class="fa-secondary" d="M382.2 33.17C380.6 37.96 379.3 42.81 378.1 47.52C373.3 66.46 370.1 86.05 368.4 97.79C364.5 124.6 387.4 147.5 414.1 143.6C426 141.9 445.6 138.8 464.5 133.9C469.2 132.7 474.1 131.4 478.8 129.9C534.2 227.5 520.2 353.8 437 437C353.8 520.3 227.5 534.2 129.8 478.8C131.3 474 132.7 469.2 133.9 464.5C138.7 445.5 141.9 425.1 143.6 414.2C147.5 387.4 124.6 364.5 97.89 368.4C85.97 370.1 66.39 373.2 47.46 378.1C42.76 379.3 37.93 380.6 33.15 382.1C-22.19 284.5-8.245 158.2 74.98 74.98C158.2-8.253 284.5-22.19 382.2 33.17V33.17zM416.4 202.3C411.6 190.4 395.6 191.4 389.6 202.7C370.1 239.4 343.3 275.9 309.8 309.4C276.3 342.9 239.8 369.7 203.1 389.2C191.8 395.2 190.8 411.2 202.7 416C262.1 440.2 332.6 428.3 380.7 380.3C428.7 332.2 440.6 261.7 416.4 202.3H416.4zM94.43 288.5L150.5 293.6L155.6 349.7C155.8 352.5 157.1 355 159 357C165.4 363.4 176.2 360.7 178.8 352.1L208.5 254.6C211.1 242.1 201.1 232.1 189.5 235.7L92.05 265.3C83.46 267.9 80.76 278.7 87.1 285.1C89.07 287.1 91.66 288.3 94.43 288.5V288.5zM235.7 189.5C232.1 201.1 242.1 211.1 254.6 208.5L352.1 178.8C360.7 176.2 363.4 165.4 357 159C355 157.1 352.5 155.8 349.7 155.6L293.6 150.5L288.5 94.43C288.3 91.66 287.1 89.07 285.1 87.1C278.7 80.76 267.9 83.46 265.3 92.05L235.7 189.5z"/></svg>

<svg xmlns="http://www.w3.org/2000/svg" viewBox="0 0 512 512"><!--! Font Awesome Pro 6.4.0 by @fontawesome - https://fontawesome.com License - https://fontawesome.com/license (Commercial License) Copyright 2023 Fonticons, Inc. --><defs><style>.fa-secondary{opacity:.4}</style></defs><path class="fa-primary" d="M497.1 14.9c19.6 19.6 20 51 .7 70.3c-14.8 14.8-65.7 23.6-88.3 26.7c-5.6 .9-10.3-3.9-9.5-9.5C403.3 79.9 412 29 426.8 14.2C446-5 477.5-4.6 497.1 14.9zM87.1 285.1c-6.3-6.3-3.6-17.2 4.9-19.8l97.4-29.7c11.6-3.5 22.5 7.3 19 19l-29.7 97.4c-2.6 8.6-13.4 11.3-19.8 4.9c-2-2-3.2-4.6-3.4-7.3l-5.1-56.1-56.1-5.1c-2.8-.3-5.4-1.5-7.3-3.4zM265.3 92c2.6-8.6 13.4-11.3 19.8-4.9c2 2 3.2 4.6 3.4 7.3l5.1 56.1 56.1 5.1c2.8 .3 5.4 1.5 7.3 3.4c6.3 6.3 3.6 17.2-4.9 19.8l-97.4 29.7c-11.6 3.5-22.5-7.3-19-19L265.3 92zM14.9 497.1c-19.6-19.6-20-51-.7-70.3C29 412 79.8 403.2 102.4 400.1c5.6-.9 10.3 3.9 9.5 9.5c-3.2 22.5-11.9 73.5-26.7 88.3C66 517 34.5 516.6 14.9 497.1z"/><path class="fa-secondary" d="M382.2 33.2c-1.5 4.8-2.9 9.6-4.1 14.3c-4.8 18.9-8 38.5-9.7 50.3c-4 26.8 18.9 49.7 45.7 45.8c11.9-1.6 31.5-4.8 50.4-9.6c4.7-1.2 9.5-2.5 14.3-4.1C534.2 227.5 520.2 353.8 437 437c-83.2 83.2-209.5 97.2-307.2 41.8c1.5-4.8 2.8-9.6 4-14.3c4.8-18.9 8-38.5 9.7-50.3c4-26.8-18.9-49.7-45.7-45.8c-11.9 1.6-31.5 4.8-50.4 9.7c-4.7 1.2-9.5 2.5-14.3 4.1C-22.2 284.5-8.2 158.2 75 75C158.2-8.3 284.5-22.2 382.2 33.2zm34.3 169.1c-4.8-11.9-20.9-10.9-26.9 .4c-19.4 36.7-46.3 73.2-79.8 106.7s-70 60.3-106.7 79.8c-11.3 6-12.3 22.1-.4 26.9c59.4 24.1 129.9 12.2 177.9-35.8s59.9-118.5 35.8-177.9zM87.1 285.1c2 2 4.6 3.2 7.3 3.4l56.1 5.1 5.1 56.1c.3 2.8 1.5 5.4 3.4 7.3c6.3 6.3 17.2 3.6 19.8-4.9l29.7-97.4c3.5-11.6-7.3-22.5-19-19L92 265.3c-8.6 2.6-11.3 13.4-4.9 19.8zM265.3 92l-29.7 97.4c-3.5 11.6 7.3 22.5 19 19l97.4-29.7c8.6-2.6 11.3-13.4 4.9-19.8c-2-2-4.6-3.2-7.3-3.4l-56.1-5.1-5.1-56.1c-.3-2.8-1.5-5.4-3.4-7.3c-6.3-6.3-17.2-3.6-19.8 4.9z"/></svg>
